X: 1
T: The Chickens Clicking
S: a random session recording (piano accordion)
M: 4/4
L: 1/8
R: reel
K: Dmin
DEFG AD~D2|BAGB AGFE|DEFG ADFD|GECE GCEG|
DEFG AD~D2|BAGB AGED|C2~C2 EC~C2|GECG DEFE:|
|:DdD dcDc|BAGB AD~D2|d3D dcDc|BAGB A3A|
dAde fAfA|cAGc ADDG|C2~C2 EC~C2|GECG DEFE:|
